build/files/img/header_logo-title.svg

<svg width="96" height="20" viewBox="0 0 96 20" fill="none" xmlns="http://www.w3.org/2000/svg">
<path d="M89.7113 12.4113L85.8093 0.62014H88.1522L90.9173 9.41358L93.6393 0.62014H96.0081L92.1318 12.4113V18.8413H89.72L89.7113 12.4113Z" fill="#444444"/>
<path d="M1.40916 17.8551C0.571543 16.5596 0.171037 15.0098 0.270844 13.4503V7.08498C0.165182 5.51401 0.559634 3.9506 1.3929 2.63774C2.14635 1.62495 3.43374 1.12138 5.25504 1.12704C7.07635 1.1327 8.30953 1.57685 8.95458 2.45951C9.74111 3.55332 10.1249 4.90573 10.036 6.27022V7.76395H6.66981V6.14291C6.66527 5.71639 6.62994 5.29083 6.56411 4.86985C6.52341 4.56509 6.38935 4.28225 6.18196 4.06357C6.05393 3.94897 5.9053 3.86217 5.74474 3.80825C5.58419 3.75433 5.41494 3.73437 5.24691 3.74955C5.00559 3.71196 4.75904 3.7529 4.54081 3.86679C4.32258 3.98069 4.14327 4.16201 4.02729 4.38608C3.8135 4.98211 3.7194 5.61766 3.75084 6.25324V14.333C3.71375 14.9728 3.82242 15.6126 4.06794 16.2001C4.18525 16.4121 4.35933 16.5836 4.56879 16.6937C4.77824 16.8037 5.01394 16.8475 5.24691 16.8197C5.47584 16.8535 5.70915 16.8109 5.91356 16.6982C6.11797 16.5854 6.28304 16.4081 6.38523 16.1916C6.58191 15.5945 6.66746 14.9636 6.63728 14.333V12.6355H10.0035V14.1038C10.1025 15.4884 9.75008 16.8673 9.00336 18.0164C8.28785 18.9499 7.05196 19.4082 5.2957 19.4082C3.53944 19.4082 2.16533 18.899 1.40916 17.8551Z" fill="#111111"/>
<path d="M14.6224 1.37316H18.4764L21.7287 19.1961H18.5252L17.9479 15.258H15.2484L14.598 19.1706H11.3456L14.6224 1.37316ZM17.5901 13.0175L16.5656 5.85435L15.5493 13.0175H17.5901Z" fill="#111111"/>
<path d="M24.2254 4.05508H21.591V1.37316H30.3073V4.05508H27.7054V19.1706H24.2173L24.2254 4.05508Z" fill="#111111"/>
<path d="M37.1461 1.37316H43.7564V3.22335H39.5284V9.1049H42.9596V10.8617H39.5284V17.3883H43.7971V19.1706H37.1461V1.37316Z" fill="#444444"/>
<path d="M45.7164 1.37316H47.3425L52.221 13.1957V1.37316H54.205V19.1961H52.6845L47.806 7.04254V19.1706H45.7896L45.7164 1.37316Z" fill="#444444"/>
<path d="M56.8318 1.37316H63.434V3.22335H59.206V9.1049H62.6697V10.8617H59.2385V17.3883H63.4828V19.1706H56.8318V1.37316Z" fill="#444444"/>
<path d="M65.394 1.37316H68.8252C70.1774 1.25959 71.524 1.65387 72.6223 2.48497C73.4354 3.22335 73.8338 4.42851 73.8338 6.10047C73.8338 8.3637 73.1318 9.74709 71.7279 10.2507L74.1671 19.1706H71.858L69.622 10.8193H67.7763V19.1706H65.394V1.37316ZM68.6463 9.01155C69.4296 9.09065 70.2129 8.86052 70.8416 8.36653C71.0972 8.05088 71.2881 7.684 71.4028 7.28847C71.5174 6.89293 71.5534 6.47709 71.5083 6.06652C71.5247 5.49072 71.4449 4.91635 71.2726 4.36911C71.2027 4.16732 71.0947 3.98223 70.955 3.82479C70.8154 3.66735 70.6469 3.54075 70.4595 3.4525C69.9316 3.22645 69.3624 3.12502 68.7927 3.15545H67.7438V9.04549L68.6463 9.01155Z" fill="#444444"/>
<path d="M77.0379 17.8551C76.2607 16.4858 75.9005 14.9023 76.0052 13.3145V7.37353C75.9772 6.22706 76.1143 5.08269 76.4118 3.9787C76.6466 3.14871 77.1457 2.42717 77.8266 1.93331C78.6486 1.41623 79.6001 1.16792 80.5585 1.22039C81.1785 1.15885 81.8038 1.23937 82.3909 1.45633C82.9779 1.67329 83.5125 2.02145 83.9572 2.47648C84.7373 3.61718 85.106 5.00903 84.998 6.40601V7.068H82.762V6.51634C82.7772 5.85652 82.7282 5.1968 82.6156 4.54733C82.5416 4.1311 82.3212 3.75878 81.9977 3.50342C81.5756 3.24341 81.0882 3.12215 80.5992 3.15545C80.0681 3.10802 79.5402 3.27851 79.1275 3.63073C78.7903 3.96471 78.5699 4.40689 78.5014 4.88682C78.3984 5.58593 78.3522 6.29287 78.3632 7.0001V13.6115C78.2986 14.6162 78.463 15.6225 78.8429 16.5481C79.0635 16.8327 79.3436 17.0609 79.6617 17.2153C79.9797 17.3696 80.3274 17.4461 80.6781 17.4387C81.0288 17.4313 81.3732 17.3404 81.685 17.1728C81.9969 17.0052 82.2679 16.7654 82.4774 16.4717C82.8692 15.4928 83.039 14.4326 82.9734 13.3739V12.1178H80.8106V10.361H85.1199V19.1706H83.6482L83.4124 17.1252C83.2261 17.8047 82.825 18.3985 82.2744 18.8099C81.7237 19.2213 81.056 19.4262 80.3796 19.3913C79.7437 19.4498 79.104 19.3396 78.5198 19.0711C77.9356 18.8025 77.4258 18.3843 77.0379 17.8551V17.8551Z" fill="#444444"/>
</svg>

<svg width="96" height="20" fill="none" xmlns="http://www.w3.org/2000/svg"><path d="M89.71 12.41 85.81.62h2.34l2.77 8.8 2.72-8.8H96l-3.88 11.8v6.42h-2.41v-6.43Z" fill="#444"/><path d="M1.4 17.86a7.27 7.27 0 0 1-1.13-4.41V7.08A7.39 7.39 0 0 1 1.4 2.64c.76-1.02 2.04-1.52 3.87-1.51 1.82 0 3.05.45 3.7 1.33a5.88 5.88 0 0 1 1.08 3.81v1.5H6.67V6.13c0-.42-.04-.85-.1-1.27-.05-.3-.18-.59-.39-.8a1.25 1.25 0 0 0-.93-.32c-.24-.04-.5 0-.7.12-.23.11-.4.3-.52.52-.22.6-.31 1.23-.28 1.86v8.08c-.04.64.07 1.28.32 1.87.12.21.29.38.5.5.2.1.44.15.68.12.23.03.46 0 .66-.12.2-.11.37-.3.48-.5.2-.6.28-1.24.25-1.87v-1.7H10v1.47a6.36 6.36 0 0 1-1 3.92c-.71.93-1.95 1.39-3.7 1.39-1.76 0-3.13-.51-3.9-1.55ZM14.62 1.37h3.86l3.25 17.83h-3.2l-.58-3.94h-2.7l-.65 3.91h-3.25l3.27-17.8Zm2.97 11.65-1.02-7.17-1.02 7.17h2.04ZM24.23 4.06h-2.64V1.37h8.72v2.69h-2.6v15.11h-3.5l.02-15.11Z" fill="#111"/><path d="M37.15 1.37h6.6v1.85h-4.22V9.1h3.43v1.76h-3.43v6.53h4.27v1.78h-6.65V1.37ZM45.72 1.37h1.62l4.88 11.83V1.37h1.98V19.2h-1.52L47.81 7.04v12.13h-2.02l-.07-17.8ZM56.83 1.37h6.6v1.85h-4.22V9.1h3.46v1.76h-3.43v6.53h4.24v1.78h-6.65V1.37ZM65.4 1.37h3.43c1.35-.11 2.7.28 3.8 1.11.8.74 1.2 1.95 1.2 3.62 0 2.26-.7 3.65-2.1 4.15l2.44 8.92h-2.31l-2.24-8.35h-1.84v8.35h-2.39V1.37Zm3.25 7.64c.78.08 1.56-.15 2.2-.64a3.07 3.07 0 0 0 .66-2.3 5.17 5.17 0 0 0-.24-1.7 1.62 1.62 0 0 0-.81-.92 3.73 3.73 0 0 0-1.67-.3h-1.05v5.9l.9-.04ZM77.04 17.86A8.13 8.13 0 0 1 76 13.3V7.37c-.03-1.14.1-2.29.4-3.4a3.8 3.8 0 0 1 1.42-2.04 4.65 4.65 0 0 1 2.73-.71 4.11 4.11 0 0 1 3.4 1.26A6.13 6.13 0 0 1 85 6.4v.66h-2.24v-.55c.02-.66-.03-1.32-.14-1.97A1.7 1.7 0 0 0 82 3.5c-.42-.26-.91-.38-1.4-.34a2 2 0 0 0-1.47.47 2.2 2.2 0 0 0-.63 1.26c-.1.7-.15 1.4-.14 2.11v6.61c-.06 1 .1 2.01.48 2.94a2.32 2.32 0 0 0 1.84.89 2.22 2.22 0 0 0 1.8-.97c.39-.98.56-2.04.5-3.1v-1.25H80.8v-1.76h4.31v8.81h-1.47l-.24-2.04a3.13 3.13 0 0 1-1.14 1.68c-.55.41-1.21.62-1.89.58a3.65 3.65 0 0 1-1.86-.32 3.82 3.82 0 0 1-1.48-1.21Z" fill="#444"/></svg>
